!!!COM: Eaktay, Ahn
!!!CDT: 1905-1965
!!!OTL: National Anthem, Korea, (South)
!!!ENC: Davis, Matthew J.
!!Vocal Line Only
**kern
*clefG2
*k[f#c#g#]
*M4/4
*A:
=1-
1r
=2
1r
=3
1r
=4
1r
==5
4e
4.a
8g#
4f#
=6
4a
4e
4c#
4e
=7
4a
8b
8cc#
4.dd
8cc#
=8
2.b
4r
=9
4.ee
8dd
4cc#
4b
=10
4a
8g
8f#
4e
4c#
=11
4e
4a
8b
8b
4cc#
=12
2.a
4r
==13
!Chorus
4.g#
8a
4b
4g#
=14
4.cc#
8dd
4ee
4cc#
=15
4b
4a
4g#
4a
=16
2.b
4r
=17
4.ee
8dd
4cc#
4b
=18
4a
8g#
8f#
4e
4c#
=19
4e
4a
8b
8b
4cc#
=20
2.a
4r
==|!
*-
